X: 1
T: Bolt the Door
T: Jack's Health
B: Pinewoods Scottish Music Collection [Alternates] (1986)
B: O'Neill's 1850 #957
R: jig
Z: 2006 John Chambers <jc:trillian.mit.edu>
M: 6/8
L: 1/8
K: Ador
g2 \
|: f \
| "Am"ecA A2B | "G"G2E "Em"E2B | "Am"c2A "G"B2G | "Am"A2B c2d \
| "Am"ecA A2B | "G"G2E "Em"E2B | "Am"c2A "G"B2G | "Am"ABA A2 :|
B \
| "Am"cBA "G"G2B | "C"e3 "G"d2B | "Am"c2A "G"B2G | "Am"A2B c2d \
| "Am"ecA A2d | "C"e3 "G"d2B | "Am"c2A "D"B2A | "G"G3 g2f |
| "G"dBG G2d | "C"e3 "G"d2B | "Am"c2A "G"B2G | "F"A2B "Em"c2d \
| "Am"ecA A2d | "Am"e2a "D"a2f | "Em"g2e "G"d2B | "Am"A3 |]
